X:1
T:Christo resurgenti - Couperin
T:#
T:Christo resurgenti - Couperin
T:#
%%score [ 1 2 3 ] { ( 4 5 ) | 6 }
L:1/8
M:3/4
K:F
V:1 treble nm="Alto" snm="A"
V:2 treble-8 nm="Tenor" snm="T"
V:3 bass nm="Bass" snm="B"
V:4 treble nm="Piano left hand"
V:5 treble 
V:6 bass 
V:1
"^Christo Resurgenti" z2 | z6 | z6 | z6 | z2 z2{!stemless![Cc]} F2 | D2 E2 F2 | G2 G2 G2 | %7
w: ||||Chris-|to re- sur-|gen- ti, Chris-|
"^Francois Couperin\n(1668-1733)" G2 F2 E2 | (F>E F>G F>G | E2) E2 A2 | G2 F2 E2 | (F>E F>G F>E | %12
w: to tri- um-|phan\- * * * * *|* ti, Chris-|to tri- um-|phan\- * * * * *|
 D2) D>G G2 | F2 (F2 E>)F | E4 E>G | C2 C2 D2 | E2 D4 | C4 E2 | C2 D2 E2 | F2 F2 F2 | D2 E2 F2 | %21
w: * ti ap- plau-|dant sy\- * de-|ra. Al- le-|lu- ia, al-|le- lu-|ia.~ Chris-|to re- sur-|gen- ti, Chris-|to tri- um-|
 (G>A G>F E>D | ^C2) C>C D2 | D2 E7/2 ^F/ | G2 B>A G>F | E>D ^C4 | D4 ^F2 | D2 E2 ^F2 | G2 G2 G2 | %29
w: phan\- * * * * *|* ti ap- plau-|dant sy- de-|ra.~ Al\- * * *|le\- * lu-|ia.~ Chris-|to re- sur-|gen- ti, Chris-|
 E2 F2 G2 | (A2 G>A F2 | B2 c>B A>G | A2) F>A B2 | A3 (G/A/ G>)F | E4 F>G | A2 D2 E>F | G2 E2 F>G | %37
w: to tri- um-|phan\- * * *||* ti ap- plau-|dant sy\- * * de-|ra. Al- le-|lu- ia, al- le-|lu- ia, al- le-|
 (F2 E4) | F6 | z6 | z6 | z6 | z4 | F2 | D2 E2 F2 | G2 G2 G2 | G2 F2 E2 | (F>E F>G F>G | %48
w: lu\- *|ia.|||||Fi-|de vin- di-|ca- ta, mor-|te su- per-|a\- * * * * *|
 E2) E2 A2 | G2 F2 E2 | (F>E F>G F>E | D2) D>G G2 | F2 (F2 E>)F | E4 E>G | C2 C2 D2 | E2 D4 | %56
w: * ta, mor-|te su- per-|a\- * * * * *|* ta lae- ten-|tur om\- * ni-|a. Al- le-|lu- ia, al-|le- lu-|
 C4 E2 | C2 D2 E2 | F2 F2 F2 | D2 E2 F2 | (G>A G>F E>D | ^C2) C>C D2 | D2 E7/2 ^F/ | G2 B>A G>F | %64
w: ia.~ Fi-|de vin- di-|ca- ta, mor-|te su- per-|a\- * * * * *|* ta lae- ten-|tur om- ni-|a.~ Al\- * * *|
 E>D ^C4 | D4 ^F2 | D2 E2 ^F2 | G2 G2 G2 | E2 F2 G2 | (A2 G>A F2 | B2 c>B A>G | A2) F>A B2 | %72
w: le\- * lu-|ia.~ Fi-|de vin- di-|ca- ta, mor-|te su- per-|a\- * * *||* ta lae- ten-|
 A3 (G/A/ G>)F | E4 F>G | A2 D2 E>F | G2 E2 F>G | (F2 E4) | F6 | z6 | z6 | z6 | z4 |] %82
w: tur om\- * * ni-|a. Al- le-|lu- ia, al- le-|lu- ia, al- le-|lu\- *|ia.|||||
V:2
 z2 | z6 | z6 | z6 | z2 z2{!stemless![D_e]} A2 | F2 G2 A2 | B2 B2 B2 | B2 A2 G2 | (A>G A>B A>B | %9
w: ||||Chris-|to re- sur-|gen- ti, Chris-|to tri- um-|phan\- * * * * *|
 G2) G2 c2 | B2 A2 G2 | (A>G A>=B c>d | =B2) B>B c2 | c2 d7/2 d/ | G4 G>c | A2 A2 =B2 | %16
w: * ti, Chris-|to tri- um-|phan\- * * * * *|* ti ap- plau-|dant sy- de-|ra. Al- le-|lu- ia, al-|
 c2 (c2 =B2) | c4 G2 | E2 F2 G2 | A2 A2 A2 | F2 G2 A2 | (B>c B>A G>F | E2) E>A ^F2 | ^F2 G7/2 A/ | %24
w: le- lu\- *|ia.~ Chris-|to re- sur-|gen- ti, Chris-|to tri- um-|phan\- * * * * *|* ti ap- plau-|dant sy- de-|
 B2 d>c B>A | G>F E4 | D4 A2 | ^F2 G2 A2 | B2 B2 B2 | G2 A2 B2 | (c2 B>c A2 | d2 _e>d c>B | %32
w: ra.~ Al\- * * *|le\- * lu-|ia.~ Chris-|to re- sur-|gen- ti, Chris-|to tri- um-|phan\- * * *||
 c2) A>c d2 | c3 (B/c/ B>)A | G4 A>B | c2 F2 G>A | B2 G2 A>B | (A3 G/A/ G2) | F6 | z6 | z6 | z6 | %42
w: * ti ap- plau-|dant sy\- * * de-|ra. Al- le-|lu- ia, al- le-|lu- ia, al- le-|lu\- * * *|ia.||||
 z4 | A2 | F2 G2 A2 | B2 B2 B2 | B2 A2 G2 | (A>G A>B A>B | G2) G2 c2 | B2 A2 G2 | (A>G A>=B c>d | %51
w: |Fi-|de vin- di-|ca- ta, mor-|te su- per-|a\- * * * * *|* ta, mor-|te su- per-|a\- * * * * *|
 =B2) B>B c2 | c2 d7/2 d/ | G4 G>c | A2 A2 =B2 | c2 (c2 =B2) | c4 G2 | E2 F2 G2 | A2 A2 A2 | %59
w: * ta lae- ten-|tur om- ni-|a. Al- le-|lu- ia, al-|le- lu\- *|ia. Fi-|de vin- di-|ca- ta, mor-|
 F2 G2 A2 | (B>c B>A G>F | E2) E>A ^F2 | ^F2 G7/2 A/ | B2 d>c B>A | G>F E4 | D4 A2 | ^F2 G2 A2 | %67
w: te su- per-|a\- * * * * *|* ta lae- ten-|tur om- ni-|a. Al\- * * *|le\- * lu-|ia.~ Fi-|de vin- di-|
 B2 B2 B2 | G2 A2 B2 | (c2 B>c A2 | d2 _e>d c>B | c2) A>c d2 | c3 (B/c/ B>)A | G4 A>B | c2 F2 G>A | %75
w: ca- ta, mor-|te su- per-|a\- * * *||* ta lae- ten-|tur om\- * * ni-|a. Al- le-|lu- ia, al- le-|
 B2 G2 A>B | (A3 G/A/ G2) | F6 | z6 | z6 | z6 | z4 |] %82
w: lu- ia, al- le-|lu\- * * *|ia.|||||
V:3
 z2 | z6 | z6 | z6 | z2 z2{!stemless![F,,C]} F,2 | B,,2 B,,2 A,,2 | G,,2 A,,2 B,,2 | C,2 C,2 C,2 | %8
w: ||||Chris-|to re- sur-|gen- ti, Chris-|to tri- um-|
 F,6 | C,7/2 (B,,/ A,,2) | B,,2 C,2 C,2 | F,6 | G,>G, G,>G, A,2- | A,2 =B,4 | C4 C,>E, | %15
w: phan-|ti, Chris\- *|to tri- um-|phan-|ti ap- plau- dant sy\-|* de-|ra. Al- le-|
 F,2 E,2 D,2 | C,2 G,,4 | C,6 | z4 G,,2 | F,,2 G,,2 A,,2 | B,,4 A,,2 | G,,6 | A,,4 D,2 | %23
w: lu- ia, al-|le- lu-|ia.~|Chris-|to re- sur-|gen- ti,|ap-|plau- dant|
 C,2 (B,,7/2 A,,/) | G,,2 G,,4- | G,,2 A,,4 | D,6 | D,4 D,2 | G,,2 A,,2 B,,2 | C,4 B,,2 | %30
w: sy- de\- *|ra. Al\-|* le-|lu-|ia. Chris-|to re- sur-|gen- ti,|
 A,,2 D,4 | B,,6 | F,7/2 F,/ B,,2 | C,2 D,2 B,,2 | C,4 C,>B,, | A,,2 B,,2 B,,>A,, | %36
w: tri- um-|phan-|ti ap- plau-|dant sy- de-|ra. Al- le-|lu- ia, al- le-|
 G,,2 C,2 F,>B,, | C,6 | F,,6 | z6 | z6 | z6 | z4 | F,2 | B,,2 B,,2 A,,2 | G,,2 A,,2 B,,2 | %46
w: lu- ia, al- le-|lu-|ia.|||||Fi-|de vin- di-|ca- ta, mor-|
 C,2 C,2 C,2 | F,6 | C,7/2 (B,,/ A,,2) | B,,2 C,2 C,2 | F,6 | G,>G, G,>G, A,2- | A,2 =B,4 | %53
w: te su- per-|a-|ta, mor\- *|te su- per-|a-|ta lae- ten- tur om\-|* ni-|
 C4 C,>E, | F,2 E,2 D,2 | C,2 G,,4 | C,6 | z4 G,,2 | F,,2 G,,2 A,,2 | B,,4 A,,2 | G,,6 | A,,4 D,2 | %62
w: a. Al- le-|lu- ia, al-|le- lu-|ia.|mor-|te su- per-|a- ta|lae-|ten- tur|
 C,2 (B,,7/2 A,,/) | G,,2 G,,4- | G,,2 A,,4 | D,6 | D,4 D,2 | G,,2 A,,2 B,,2 | C,4 B,,2 | %69
w: om- ni\- *|a. Al\-|* le-|lu-|ia. Fi-|de vin- di-|ca- ta,|
 A,,2 D,4 | B,,6 | F,7/2 F,/ B,,2 | C,2 D,2 B,,2 | C,4 C,>B,, | A,,2 B,,2 B,,>A,, | %75
w: su- per-|a-|ta lae- ten-|tur om- ni-|a. Al- le-|lu- ia, al- le-|
 G,,2 C,2 F,>B,, | C,6 | F,,6 | z6 | z6 | z6 | z4 |] %82
w: lu- ia, al- le-|lu-|ia.|||||
V:4
 x2 | x6 | x4 f>c | x2 (G/4A/4G/- G2) F | [A,CF]3 z [A,CF]2 | [F,D]2 [G,E]2 [A,CF]2 | %6
 [B,DG]4 [B,DG]2 | [B,G]2 [A,F]2 [G,E]2 | [A,CF]7/2 [G,E]/ [A,F]>[B,G] | [CE]4 [CF]2 | %10
 [B,D]2 [A,C]>D [G,E]2 | [A,CF]7/2 G/ F>E | [G,=B,D]2 G4 | F7/2 F/ E>[DF] | [G,CE]7/2 F/ G2 | %15
 [A,CF]4 [=B,F]2 | E>F D4 | [E,G,C]4 [G,CE]2 | [E,G,C]2 [F,D]2 [G,CE]2 | [A,CF]4 [CF]2 | %20
 D2 E2 [CF]2 | [B,DG]7/2 F/ E>D | [A,^C]4 [^F,A,D]2 | [^F,A,D]2 [G,E]7/2 [C^F]/ | %24
 [B,DG]7/2 A/ G>F | E>D ^C>=B, C2 | [F,A,D]7/2 ^C/ D>E | [A,D^F]2 E2 [A,DF]2 | [B,DG]2 z2 [B,DG]2 | %29
 [G,E]2 [A,F]2 [B,G]2 | [CA]2 [B,G]2 [A,F]2 | [DFB]7/2 B/ A>G | [CFA]>G F7/2 G/ | A7/2 A/ G>F | %34
 [CE]7/2 [G,E]/ [A,F]>[B,G] | [CA]>G [DF]>F E>F | [B,DG]>F [CE]2 [A,CF]>[B,DG] | F2 E7/2 F/ | %38
 [A,CF]4 x2 | x6 | x4 f>c | x2 G/4A/4G/- G2 F | [A,CF]4 | [A,CF]2 | [F,D]2 [G,E]2 [A,CF]2 | %45
 [B,DG]4 [B,DG]2 | [B,G]2 [A,F]2 [G,E]2 | [A,CF]7/2 [G,E]/ [A,F]>[B,G] | [CE]4 [CF]2 | %49
 [B,D]2 [A,C]>D [G,E]2 | [A,CF]7/2 G/ F>E | [G,=B,D]2 G4 | F7/2 F/ E>[DF] | [G,CE]7/2 F/ G2 | %54
 [A,CF]4 [=B,F]2 | E>F D4 | [E,G,C]4 [G,CE]2 | [E,G,C]2 [F,D]2 [G,CE]2 | [A,CF]4 [CF]2 | %59
 D2 E2 [CF]2 | [B,DG]7/2 F/ E>D | [A,^C]4 [^F,A,D]2 | [^F,A,D]2 [G,E]7/2 [C^F]/ | %63
 [B,DG]7/2 A/ G>F | E>D ^C>=B, C2 | [F,A,D]7/2 ^C/ D>E | [A,D^F]2 E2 [A,DF]2 | [B,DG]2 z2 [B,DG]2 | %68
 [G,E]2 [A,F]2 [B,G]2 | [CA]2 [B,G]2 [A,F]2 | [DFB]7/2 B/ A>G | [CFA]>G F7/2 G/ | A7/2 A/ G>F | %73
 [CE]7/2 [G,E]/ [A,F]>[B,G] | [CA]>G [DF]>F E>F | [B,DG]>F [CE]2 [A,CF]>[B,DG] | F2 E7/2 F/ | %77
 [A,CF]4 x2 | x6 | x4 f>c | x2 G/4A/4G/- G2 F | [A,CF]4 |] %82
V:5
 [Ac]2 | [FA]2 [GB]2 [Ac]2 | [Bd]>[Ac] [Bd]>[Ge] A2 | [GB]>[FA] F2 E2 | x6 | x6 | x6 | x6 | x6 | %9
 x6 | x6 | x6 | x4 C2 | C2 D2 x2 | x4 E>C | x6 | C4 =B,2 | x6 | x6 | x6 | B,4 x2 | x6 | x6 | x6 | %24
 x6 | x4 A,>G, | x6 | x6 | x6 | x6 | x6 | x6 | x4 D2 | E2 F2 D2 | x6 | x6 | x6 | [A,C]4 G,2 | %38
 x4 [Ac]2 | [FA]2 [GB]2 [Ac]2 | [Bd]>[Ac] [Bd]>[Ge] A2 | [GB]>[FA] F2 E2 | x4 | x2 | x6 | x6 | x6 | %47
 x6 | x6 | x6 | x6 | x4 C2 | C2 D2 x2 | x4 E>C | x6 | C4 =B,2 | x6 | x6 | x6 | B,4 x2 | x6 | x6 | %62
 x6 | x6 | x4 A,>G, | x6 | x6 | x6 | x6 | x6 | x6 | x4 D2 | E2 F2 D2 | x6 | x6 | x6 | [A,C]4 G,2 | %77
 x4 [Ac]2 | [FA]2 [GB]2 [Ac]2 | [Bd]>[Ac] [Bd]>[Ge] A2 | [GB]>[FA] F2 E2 | x4 |] %82
V:6
 z2 | F,4 F,2 | B,,4 F,,2 | B,,2 C,2 C,,2 | F,,4 F,,2 | B,,4 A,,2 | G,,2 A,,2 B,,2 | C,6 | F,,6 | %9
 C,,2 C,>B,, A,,2 | B,,2 C,2 C,,2 | F,,6 | G,,4 A,,2 | A,,2 =B,,4 | C,4 C,>E,, | F,,2 E,,2 D,,2 | %16
 C,,2 G,,4 | C,,6 | C,6 | F,,2 G,,2 A,,2 | B,,4 A,,2 | G,,6 | [A,,E,]4 D,2 | C,2 B,,7/2 A,,/ | %24
 G,,6- | G,,2 A,,4 | D,,6 | D,6 | G,,2 A,,2 B,,2 | C,4 B,,2 | A,,2 D,4 | B,,4 B,,,2 | %32
 F,,7/2 F,/ B,,2 | C,2 D,2 B,,2 | [C,G,]2 C,,2 C,>B,, | A,,2 B,,2 B,,>A,, | G,,2 [C,G,]2 F,,>B,,, | %37
 C,,6 | F,,6 | F,4 F,2 | B,,4 F,,2 | B,,2 C,2 C,,2 | F,,4 | F,,2 | B,,4 A,,2 | G,,2 A,,2 B,,2 | %46
 C,6 | F,,6 | C,,2 C,>B,, A,,2 | B,,2 C,2 C,,2 | F,,6 | G,,4 A,,2 | A,,2 =B,,4 | C,4 C,>E,, | %54
 F,,2 E,,2 D,,2 | C,,2 G,,4 | C,,6 | C,6 | F,,2 G,,2 A,,2 | B,,4 A,,2 | G,,6 | [A,,E,]4 D,2 | %62
 C,2 B,,7/2 A,,/ | G,,6- | G,,2 A,,4 | D,,6 | D,6 | G,,2 A,,2 B,,2 | C,4 B,,2 | A,,2 D,4 | %70
 B,,4 B,,,2 | F,,7/2 F,/ B,,2 | C,2 D,2 B,,2 | [C,G,]2 C,,2 C,>B,, | A,,2 B,,2 B,,>A,, | %75
 G,,2 [C,G,]2 F,,>B,,, | C,,6 | F,,6 | F,4 F,2 | B,,4 F,,2 | B,,2 C,2 C,,2 | F,,4 |] %82

